assets/omarchy/original.svg

<svg fill="#9ece6a" viewBox="0 0 24 24" xmlns="http://www.w3.org/2000/svg"><path d="m0 0v24h12.8v-3.2h8v-17.6h-3.2v1.6h1.6v14.4h-14.4v-14.4h8v-3.2h9.6v20.8h-8v1.6h9.6v-24zm1.6 1.6h9.6v1.6h-8v8h-1.6zm0 11.2h1.6v8h8v1.6h-9.6z"/></svg>

<svg xmlns="http://www.w3.org/2000/svg" fill="#9ece6a" viewBox="0 0 24 24"><path d="M0 0v24h12.8v-3.2h8V3.2h-3.2v1.6h1.6v14.4H4.8V4.8h8V1.6h9.6v20.8h-8V24H24V0zm1.6 1.6h9.6v1.6h-8v8H1.6zm0 11.2h1.6v8h8v1.6H1.6z"/></svg>
